;FLAVOR:Marlin
;TIME:33088
;Filament used: 51.6436m
;Layer height: 0.2
;Generated with Cura_SteamEngine 3.1.0
M190 S60
M104 S190
M109 S190
M82 ; absolute extrusion mode
G28 ;Home
G1 Z15.0 F6000 ;Move the platform down 15mm
;Prime the extruder
G92 E0
G1 F200 E3
G92 E0
;LAYER_COUNT:200
;LAYER:0
M107
G0 F3000 X18.145 Y27.408 Z0.3
;TYPE:SKIRT
G1 F2400 X18.578 Y27.147 E0.03531
G1 X19.046 Y26.957 E0.07059
G1 X19.539 Y26.844 E0.10592
G1 X20.009 Y26.809 E0.13884
G1 X179.991 Y26.81 E11.31299
G1 X180.495 Y26.85 E11.3483
G1 X180.986 Y26.969 E11.38359
G1 X181.453 Y27.163 E11.41891
G1 X181.883 Y27.429 E11.45422
G1 X182.266 Y27.759 E11.48953
G1 X182.592 Y28.146 E11.52488
G1 X182.853 Y28.579 E11.56019
G1 X183.043 Y29.047 E11.59547
G1 X183.156 Y29.54 E11.6308
G1 X183.191 Y30.01 E11.66372
G1 X183.191 Y169.991 E21.44087
G1 X183.151 Y170.495 E21.47618
G1 X183.032 Y170.986 E21.51147
G1 X182.838 Y171.453 E21.54679
G1 X182.572 Y171.883 E21.58211
G1 X182.242 Y172.266 E21.61742
G1 X181.855 Y172.592 E21.65276
G1 X181.422 Y172.853 E21.68807
G1 X180.954 Y173.043 E21.72335
G1 X180.461 Y173.156 E21.75868
G1 X179.991 Y173.191 E21.7916
G1 X20.009 Y173.191 E32.96575
G1 X19.505 Y173.151 E33.00106
G1 X19.014 Y173.032 E33.03635
G1 X18.547 Y172.838 E33.07167
G1 X18.117 Y172.572 E33.10698
G1 X17.734 Y172.242 E33.14229
G1 X17.408 Y171.855 E33.17764
G1 X17.147 Y171.422 E33.21295
G1 X16.957 Y170.954 E33.24823
G1 X16.844 Y170.461 E33.28356
G1 X16.809 Y169.991 E33.31647
G1 X16.809 Y30.009 E43.0937
G1 X16.849 Y29.505 E43.12901
G1 X16.968 Y29.014 E43.1643
G1 X17.162 Y28.547 E43.19962
G1 X17.428 Y28.117 E43.23493
G1 X17.758 Y27.734 E43.27025
G1 X18.145 Y27.408 E43.30559
G1 F1500 E36.80559
G0 F3000 X20.614 Y29.335
G0 X20.614 Y30.614
G0 X179.33 Y169.33
G0 X179.4 Y169.4
;TYPE:WALL-INNER
G1 F1500 E43.30559
G1 F2400 X20.6 Y169.4 E54.39718
G1 X20.6 Y30.6 E64.09184
G1 X179.4 Y30.6 E75.18343
G1 X179.4 Y169.4 E84.8781
G0 F3000 X179.8 Y169.8
;TYPE:WALL-OUTER
G1 F2400 X20.2 Y169.8 E96.02556
G1 X20.2 Y30.2 E105.7761
G1 X179.8 Y30.2 E116.92357
G1 X179.8 Y169.8 E126.67411
G0 F3000 X179.6 Y169.8
G0 X179.33 Y169.33
G0 X179.01 Y169.01
;TYPE:SKIN
G1 F2400 X20.99 Y169.01 E137.71122
G1 X20.99 Y30.99 E147.35141
G1 X179.01 Y30.99 E158.38852
G1 X179.01 Y169.01 E168.0287
G0 F3000 X178.829 Y31.751
G1 F2400 X178.248 Y31.169 E168.08614
G1 X178.178 Y31.099
G0 F3000 X177.682 Y31.169
G1 F2400 X178.829 Y32.316 E168.19944
G1 X178.899 Y32.386
G0 F3000 X178.829 Y32.882
G1 F2400 X177.116 Y31.169 E168.36864
G1 X177.046 Y31.099
G0 F3000 X176.551 Y31.169
G1 F2400 X178.829 Y33.448 E168.59371
G1 X178.899 Y33.518
G0 F3000 X178.829 Y34.013
G1 F2400 X175.985 Y31.169 E168.87463
G1 X175.915 Y31.099
G0 F3000 X175.419 Y31.169
G1 F2400 X178.829 Y34.579 E169.21146
G1 X178.899 Y34.649
G0 F3000 X178.829 Y35.145
G1 F2400 X174.854 Y31.169 E169.60415
G1 X174.784 Y31.099
G0 F3000 X174.288 Y31.169
G1 F2400 X178.829 Y35.711 E170.05275
G1 X178.899 Y35.781
G0 F3000 X178.829 Y36.276
G1 F2400 X173.722 Y31.169 E170.55721
G1 X173.652 Y31.099
G0 F3000 X173.157 Y31.169
G1 F2400 X178.829 Y36.842 E171.11752
G1 X178.899 Y36.912
G0 F3000 X178.829 Y37.408
G1 F2400 X172.591 Y31.169 E171.73375
G1 X172.521 Y31.099
G0 F3000 X172.025 Y31.169
G1 F2400 X178.829 Y37.973 E172.40583
G1 X178.899 Y38.043
G0 F3000 X178.829 Y38.539
G1 F2400 X171.459 Y31.169 E173.13382
G1 X171.389 Y31.099
G0 F3000 X170.894 Y31.169
G1 F2400 X178.829 Y39.105 E173.91767
G1 X178.899 Y39.175
G0 F3000 X178.829 Y39.67
G1 F2400 X170.328 Y31.169 E174.75738
G1 X170.258 Y31.099
G0 F3000 X169.762 Y31.169
G1 F2400 X178.829 Y40.236 E175.65299
G1 X178.899 Y40.306
G0 F3000 X178.829 Y40.802
G1 F2400 X169.197 Y31.169 E176.60447
G1 X169.127 Y31.099
G0 F3000 X168.631 Y31.169
G1 F2400 X178.829 Y41.367 E177.6118
G1 X178.899 Y41.437
G0 F3000 X178.829 Y41.933
G1 F2400 X168.065 Y31.169 E178.67504
G1 X167.995 Y31.099
G0 F3000 X167.5 Y31.169
G1 F2400 X178.829 Y42.499 E179.79415
G1 X178.899 Y42.569
G0 F3000 X178.829 Y43.064
G1 F2400 X166.934 Y31.169 E180.9691
G1 X166.864 Y31.099
G0 F3000 X166.368 Y31.169
G1 F2400 X178.829 Y43.63 E182.19997
G1 X178.899 Y43.7
G0 F3000 X178.829 Y44.196
G1 F2400 X165.803 Y31.169 E183.4867
G1 X165.733 Y31.099
G0 F3000 X165.237 Y31.169
G1 F2400 X178.829 Y44.761 E184.82928
G1 X178.899 Y44.831
G0 F3000 X178.829 Y45.327
G1 F2400 X164.671 Y31.169 E186.22777
G1 X164.601 Y31.099
G0 F3000 X164.106 Y31.169
G1 F2400 X178.829 Y45.893 E187.68213
G1 X178.899 Y45.963
G0 F3000 X178.829 Y46.459
G1 F2400 X163.54 Y31.169 E189.19239
G1 X163.47 Y31.099
G0 F3000 X162.974 Y31.169
G1 F2400 X178.829 Y47.024 E190.7585
G1 X178.899 Y47.094
G0 F3000 X178.829 Y47.59
G1 F2400 X162.408 Y31.169 E192.38053
G1 X162.338 Y31.099
G0 F3000 X161.843 Y31.169
G1 F2400 X178.829 Y48.156 E194.05842
G1 X178.899 Y48.226
G0 F3000 X178.829 Y48.721
G1 F2400 X161.277 Y31.169 E195.79216
G1 X161.207 Y31.099
G0 F3000 X160.711 Y31.169
G1 F2400 X178.829 Y49.287 E197.58181
G1 X178.899 Y49.357
G0 F3000 X178.829 Y49.853
G1 F2400 X160.146 Y31.169 E199.42732
G1 X160.076 Y31.099
G0 F3000 X159.58 Y31.169
G1 F2400 X178.829 Y50.418 E201.32869
G1 X178.899 Y50.488
G0 F3000 X178.829 Y50.984
G1 F2400 X159.014 Y31.169 E203.28597
G1 X158.944 Y31.099
G0 F3000 X158.449 Y31.169
G1 F2400 X178.829 Y51.55 E205.2991
G1 X178.899 Y51.62
G0 F3000 X178.829 Y52.115
G1 F2400 X157.883 Y31.169 E207.3681
G1 X157.813 Y31.099
G0 F3000 X157.317 Y31.169
G1 F2400 X178.829 Y52.681 E209.493
G1 X178.899 Y52.751
G0 F3000 X178.829 Y53.247
G1 F2400 X156.752 Y31.169 E211.67376
G1 X156.682 Y31.099
G0 F3000 X156.186 Y31.169
G1 F2400 X178.829 Y53.812 E213.91038
G1 X178.899 Y53.882
G0 F3000 X178.829 Y54.378
G1 F2400 X155.62 Y31.169 E216.20291
G1 X155.55 Y31.099
G0 F3000 X155.055 Y31.169
G1 F2400 X178.829 Y54.944 E218.5513
G1 X178.899 Y55.014
G0 F3000 X178.829 Y55.51
G1 F2400 X154.489 Y31.169 E220.95559
G1 X154.419 Y31.099
G0 F3000 X153.923 Y31.169
G1 F2400 X178.829 Y56.075 E223.41575
G1 X178.899 Y56.145
G0 F3000 X178.829 Y56.641
G1 F2400 X153.358 Y31.169 E225.93176
G1 X153.288 Y31.099
G0 F3000 X152.792 Y31.169
G1 F2400 X178.829 Y57.207 E228.50368
G1 X178.899 Y57.277
G0 F3000 X178.829 Y57.772
G1 F2400 X152.226 Y31.169 E231.13146
G1 X152.156 Y31.099
G0 F3000 X151.66 Y31.169
G1 F2400 X178.829 Y58.338 E233.81515
G1 X178.899 Y58.408
G0 F3000 X178.829 Y58.904
G1 F2400 X151.095 Y31.169 E236.5547
G1 X151.025 Y31.099
G0 F3000 X150.529 Y31.169
G1 F2400 X178.829 Y59.469 E239.3501
G1 X178.899 Y59.539
G0 F3000 X178.829 Y60.035
G1 F2400 X149.963 Y31.169 E242.20141
G1 X149.893 Y31.099
G0 F3000 X149.398 Y31.169
G1 F2400 X178.829 Y60.601 E245.10859
G1 X178.899 Y60.671
G0 F3000 X178.829 Y61.166
G1 F2400 X148.832 Y31.169 E248.07162
G1 X148.762 Y31.099
G0 F3000 X148.266 Y31.169
G1 F2400 X178.829 Y61.732 E251.09055
G1 X178.899 Y61.802
G0 F3000 X178.829 Y62.298
G1 F2400 X147.701 Y31.169 E254.16535
G1 X147.631 Y31.099
G0 F3000 X147.135 Y31.169
G1 F2400 X178.829 Y62.863 E257.29601
G1 X178.899 Y62.933
G0 F3000 X178.829 Y63.429
G1 F2400 X146.569 Y31.169 E260.48257
G1 X146.499 Y31.099
G0 F3000 X146.004 Y31.169
G1 F2400 X178.829 Y63.995 E263.72499
G1 X178.899 Y64.065
G0 F3000 X178.829 Y64.56
G1 F2400 X145.438 Y31.169 E267.02328
G1 X145.368 Y31.099
G0 F3000 X144.872 Y31.169
G1 F2400 X178.829 Y65.126 E270.37747
G1 X178.899 Y65.196
G0 F3000 X178.829 Y65.692
G1 F2400 X144.307 Y31.169 E273.78751
G1 X144.237 Y31.099
G0 F3000 X143.741 Y31.169
G1 F2400 X178.829 Y66.258 E277.25347
G1 X178.899 Y66.328
G0 F3000 X178.829 Y66.823
G1 F2400 X143.175 Y31.169 E280.77529
G1 X143.105 Y31.099
G0 F3000 X142.61 Y31.169
G1 F2400 X178.829 Y67.389 E284.35296
G1 X178.899 Y67.459
G0 F3000 X178.829 Y67.955
G1 F2400 X142.044 Y31.169 E287.98654
G1 X141.974 Y31.099
G0 F3000 X141.478 Y31.169
G1 F2400 X178.829 Y68.52 E291.67598
G1 X178.899 Y68.59
G0 F3000 X178.829 Y69.086
G1 F2400 X140.912 Y31.169 E295.42133
G1 X140.842 Y31.099
G0 F3000 X140.347 Y31.169
G1 F2400 X178.829 Y69.652 E299.22254
G1 X178.899 Y69.722
G0 F3000 X178.829 Y70.217
G1 F2400 X139.781 Y31.169 E303.07961
G1 X139.711 Y31.099
G0 F3000 X139.215 Y31.169
G1 F2400 X178.829 Y70.783 E306.99258
G1 X178.899 Y70.853
G0 F3000 X178.829 Y71.349
G1 F2400 X138.65 Y31.169 E310.96141
G1 X138.58 Y31.099
G0 F3000 X138.084 Y31.169
G1 F2400 X178.829 Y71.914 E314.9861
G1 X178.899 Y71.984
G0 F3000 X178.829 Y72.48
G1 F2400 X137.518 Y31.169 E319.0667
G1 X137.448 Y31.099
G0 F3000 X136.953 Y31.169
G1 F2400 X178.829 Y73.046 E323.20316
G1 X178.899 Y73.116
G0 F3000 X178.829 Y73.611
G1 F2400 X136.387 Y31.169 E327.39548
G1 X136.317 Y31.099
G0 F3000 X135.821 Y31.169
G1 F2400 X178.829 Y74.177 E331.64371
G1 X178.899 Y74.247
G0 F3000 X178.829 Y74.743
G1 F2400 X135.256 Y31.169 E335.94779
G1 X135.186 Y31.099
G0 F3000 X134.69 Y31.169
G1 F2400 X178.829 Y75.308 E340.30773
G1 X178.899 Y75.378
G0 F3000 X178.829 Y75.874
G1 F2400 X134.124 Y31.169 E344.72358
G1 X134.054 Y31.099
G0 F3000 X133.559 Y31.169
G1 F2400 X178.829 Y76.44 E349.19529
G1 X178.899 Y76.51
G0 F3000 X178.829 Y77.006
G1 F2400 X132.993 Y31.169 E353.72291
G1 X132.923 Y31.099
G0 F3000 X132.427 Y31.169
G1 F2400 X178.829 Y77.571 E358.30639
G1 X178.899 Y77.641
G0 F3000 X178.829 Y78.137
G1 F2400 X131.861 Y31.169 E362.94577
G1 X131.791 Y31.099
G0 F3000 X131.296 Y31.169
G1 F2400 X178.829 Y78.703 E367.64101
G1 X178.899 Y78.773
G0 F3000 X178.829 Y79.268
G1 F2400 X130.73 Y31.169 E372.39212
G1 X130.66 Y31.099
G0 F3000 X130.164 Y31.169
G1 F2400 X178.829 Y79.834 E377.19913
G1 X178.899 Y79.904
G0 F3000 X178.829 Y80.4
G1 F2400 X129.599 Y31.169 E382.062
G1 X129.529 Y31.099
G0 F3000 X129.033 Y31.169
G1 F2400 X178.829 Y80.965 E386.98072
G1 X178.899 Y81.035
G0 F3000 X178.829 Y81.531
G1 F2400 X128.467 Y31.169 E391.95536
G1 X128.397 Y31.099
G0 F3000 X127.902 Y31.169
G1 F2400 X178.829 Y82.097 E396.98585
G1 X178.899 Y82.167
G0 F3000 X178.829 Y82.662
G1 F2400 X127.336 Y31.169 E402.07221
G1 X127.266 Y31.099
G0 F3000 X126.77 Y31.169
G1 F2400 X178.829 Y83.228 E407.21447
G1 X178.899 Y83.298
G0 F3000 X178.829 Y83.794
G1 F2400 X126.205 Y31.169 E412.41259
G1 X126.135 Y31.099
G0 F3000 X125.639 Y31.169
G1 F2400 X178.829 Y84.359 E417.66656
G1 X178.899 Y84.429
G0 F3000 X178.829 Y84.925
G1 F2400 X125.073 Y31.169 E422.97645
G1 X125.003 Y31.099
G0 F3000 X124.508 Y31.169
G1 F2400 X178.829 Y85.491 E428.3422
G1 X178.899 Y85.561
G0 F3000 X178.829 Y86.057
G1 F2400 X123.942 Y31.169 E433.76385
G1 X123.872 Y31.099
G0 F3000 X123.376 Y31.169
G1 F2400 X178.829 Y86.622 E439.24136
G1 X178.899 Y86.692
G0 F3000 X178.829 Y87.188
G1 F2400 X122.811 Y31.169 E444.77473
G1 X122.741 Y31.099
G0 F3000 X122.245 Y31.169
G1 F2400 X178.829 Y87.754 E450.36401
G1 X178.899 Y87.824
G0 F3000 X178.829 Y88.319
G1 F2400 X121.679 Y31.169 E456.00915
G1 X121.609 Y31.099
G0 F3000 X121.113 Y31.169
G1 F2400 X178.829 Y88.885 E461.7102
G1 X178.899 Y88.955
G0 F3000 X178.829 Y89.451
G1 F2400 X120.548 Y31.169 E467.4671
G1 X120.478 Y31.099
G0 F3000 X119.982 Y31.169
G1 F2400 X178.829 Y90.016 E473.27986
G1 X178.899 Y90.086
G0 F3000 X178.829 Y90.582
G1 F2400 X119.416 Y31.169 E479.14853
G1 X119.346 Y31.099
G0 F3000 X118.851 Y31.169
G1 F2400 X178.829 Y91.148 E485.07306
G1 X178.899 Y91.218
G0 F3000 X178.829 Y91.713
G1 F2400 X118.285 Y31.169 E491.05345
G1 X118.215 Y31.099
G0 F3000 X117.719 Y31.169
G1 F2400 X178.829 Y92.279 E497.08975
G1 X178.899 Y92.349
G0 F3000 X178.829 Y92.845
G1 F2400 X117.154 Y31.169 E503.18191
G1 X117.084 Y31.099
G0 F3000 X116.588 Y31.169
G1 F2400 X178.829 Y93.41 E509.32992
G1 X178.899 Y93.48
G0 F3000 X178.829 Y93.976
G1 F2400 X116.022 Y31.169 E515.53384
G1 X115.952 Y31.099
G0 F3000 X115.457 Y31.169
G1 F2400 X178.829 Y94.542 E521.79362
G1 X178.899 Y94.612
G0 F3000 X178.829 Y95.107
G1 F2400 X114.891 Y31.169 E528.10926
G1 X114.821 Y31.099
G0 F3000 X114.325 Y31.169
G1 F2400 X178.829 Y95.673 E534.48081
G1 X178.899 Y95.743
G0 F3000 X178.829 Y96.239
G1 F2400 X113.76 Y31.169 E540.90822
G1 X113.69 Y31.099
G0 F3000 X113.194 Y31.169
G1 F2400 X178.829 Y96.805 E547.39153
G1 X178.899 Y96.875
G0 F3000 X178.829 Y97.37
G1 F2400 X112.628 Y31.169 E553.9307
G1 X112.558 Y31.099
G0 F3000 X112.062 Y31.169
G1 F2400 X178.829 Y97.936 E560.52579
G1 X178.899 Y98.006
G0 F3000 X178.829 Y98.502
G1 F2400 X111.497 Y31.169 E567.17673
G1 X111.427 Y31.099
G0 F3000 X110.931 Y31.169
G1 F2400 X178.829 Y99.067 E573.88353
G1 X178.899 Y99.137
G0 F3000 X178.829 Y99.633
G1 F2400 X110.365 Y31.169 E580.64623
G1 X110.295 Y31.099
G0 F3000 X109.8 Y31.169
G1 F2400 X178.829 Y100.199 E587.4648
G1 X178.899 Y100.269
G0 F3000 X178.829 Y100.764
G1 F2400 X109.234 Y31.169 E594.33922
G1 X109.164 Y31.099
G0 F3000 X108.668 Y31.169
G1 F2400 X178.829 Y101.33 E601.26955
G1 X178.899 Y101.4
G0 F3000 X178.829 Y101.896
G1 F2400 X108.103 Y31.169 E608.25575
G1 X108.033 Y31.099
G0 F3000 X107.537 Y31.169
G1 F2400 X178.829 Y102.461 E615.2978
G1 X178.899 Y102.531
G0 F3000 X178.829 Y103.027
G1 F2400 X106.971 Y31.169 E622.39575
G1 X106.901 Y31.099
G0 F3000 X106.406 Y31.169
G1 F2400 X178.829 Y103.593 E629.54957
G1 X178.899 Y103.663
G0 F3000 X178.829 Y104.158
G1 F2400 X105.84 Y31.169 E636.75925
G1 X105.77 Y31.099
G0 F3000 X105.274 Y31.169
G1 F2400 X178.829 Y104.724 E644.02483
G1 X178.899 Y104.794
G0 F3000 X178.829 Y105.29
G1 F2400 X104.709 Y31.169 E651.34627
G1 X104.639 Y31.099
G0 F3000 X104.143 Y31.169
G1 F2400 X178.829 Y105.856 E658.72362
G1 X178.899 Y105.926
G0 F3000 X178.829 Y106.421
G1 F2400 X103.577 Y31.169 E666.15683
G1 X103.507 Y31.099
G0 F3000 X103.012 Y31.169
G1 F2400 X178.829 Y106.987 E673.6459
G1 X178.899 Y107.057
G0 F3000 X178.829 Y107.553
G1 F2400 X102.446 Y31.169 E681.19088
G1 X102.376 Y31.099
G0 F3000 X101.88 Y31.169
G1 F2400 X178.829 Y108.118 E688.79171
G1 X178.899 Y108.188
G0 F3000 X178.829 Y108.684
G1 F2400 X101.314 Y31.169 E696.44845
G1 X101.244 Y31.099
G0 F3000 X100.749 Y31.169
G1 F2400 X178.829 Y109.25 E704.16105
G1 X178.899 Y109.32
G0 F3000 X178.829 Y109.815
G1 F2400 X100.183 Y31.169 E711.92951
G1 X100.113 Y31.099
G0 F3000 X99.617 Y31.169
G1 F2400 X178.829 Y110.381 E719.75388
G1 X178.899 Y110.451
G0 F3000 X178.829 Y110.947
G1 F2400 X99.052 Y31.169 E727.63411
G1 X98.982 Y31.099
G0 F3000 X98.486 Y31.169
G1 F2400 X178.829 Y111.512 E735.57019
G1 X178.899 Y111.582
G0 F3000 X178.829 Y112.078
G1 F2400 X97.92 Y31.169 E743.56219
G1 X97.85 Y31.099
G0 F3000 X97.355 Y31.169
G1 F2400 X178.829 Y112.644 E751.61004
G1 X178.899 Y112.714
G0 F3000 X178.829 Y113.209
G1 F2400 X96.789 Y31.169 E759.71375
G1 X96.719 Y31.099
G0 F3000 X96.223 Y31.169
G1 F2400 X178.829 Y113.775 E767.87337
G1 X178.899 Y113.845
G0 F3000 X178.829 Y114.341
G1 F2400 X95.658 Y31.169 E776.08885
G1 X95.588 Y31.099
G0 F3000 X95.092 Y31.169
G1 F2400 X178.829 Y114.906 E784.36019
G1 X178.899 Y114.976
G0 F3000 X178.829 Y115.472
G1 F2400 X94.526 Y31.169 E792.68743
G1 X94.456 Y31.099
G0 F3000 X93.961 Y31.169
G1 F2400 X178.829 Y116.038 E801.07053
G1 X178.899 Y116.108
G0 F3000 X178.829 Y116.604
G1 F2400 X93.395 Y31.169 E809.50955
G1 X93.325 Y31.099
G0 F3000 X92.829 Y31.169
G1 F2400 X178.829 Y117.169 E818.00442
G1 X178.899 Y117.239
G0 F3000 X178.829 Y117.735
G1 F2400 X92.263 Y31.169 E826.55519
G1 X92.193 Y31.099
G0 F3000 X91.698 Y31.169
G1 F2400 X178.829 Y118.301 E835.16183
G1 X178.899 Y118.371
G0 F3000 X178.829 Y118.866
G1 F2400 X91.132 Y31.169 E843.82433
G1 X91.062 Y31.099
G0 F3000 X90.566 Y31.169
G1 F2400 X178.829 Y119.432 E852.54273
G1 X178.899 Y119.502
G0 F3000 X178.829 Y119.998
G1 F2400 X90.001 Y31.169 E861.31699
G1 X89.931 Y31.099
G0 F3000 X89.435 Y31.169
G1 F2400 X178.829 Y120.563 E870.14712
G1 X178.899 Y120.633
G0 F3000 X178.829 Y121.129
G1 F2400 X88.869 Y31.169 E879.03314
G1 X88.799 Y31.099
G0 F3000 X88.304 Y31.169
